X:1
T:Sweetly Resting
T:Sweetly Resting
T:William Warren Bentley
T:Mary Dagworthy James, 1875
T:Public Domain Courtesy of the Cyber Hymnal™
C:William Warren Bentley
Z:Public Domain
Z:Courtesy of the Cyber Hymnal™
%%score ( 1 2 ) 3
L:1/8
Q:1/4=150
M:3/2
K:Eb
V:1 treble 
V:2 treble 
V:3 bass 
V:1
 E2 [DF]2 | [EG]4 [EG]4 [DF]2 E2 | [EG]4 [GB]4 [Ac]2 [Ac]2 | [GB]4 [EG]4 [DF]2 E2 | %4
w: 1.~In the|rift- ed rock I’m|rest- ing; Safe- ly|shel- tered, I a-|
w: 2.~Long pur-|sued by sin and|Sa- tan, Wear- y,|sad, I longed for|
w: 3.~Peace which|pass- eth un- der-|stand- ing, Joy the|world can nev- er|
w: 4.~In the|rift- ed rock I’ll|hide me Till the|storms of life are|
 [DF]6 z2 E2 [DF]2 | [EG]4 [EG]4 [DF]2 E2 | [EG]4 [GB]4 [Ac]2 [Ac]2 | [GB]4 [EG]4 [DF]2 [DF]2 | %8
w: bide. There no|foes nor storms mo-|lest me, While with-|in the cleft I|
w: rest. Then I|found this heav’n- ly|shel- ter, O- pened|in my Sav- ior’s|
w: give, Now in|Je- sus I am|find- ing; In His|smiles of love I|
w: past; All se-|cure in this blest|ref- uge, Heed- ing|not the fierc- est|
 E6 z2 ||"^Refrain" [GB]2 [GB]2 | [Ge]4 [GB]4 [EG]2 [EG]2 | [EB]4 [EG]4 [EG]2 [EG]2 | %12
w: hide.||||
w: breast.||||
w: live.||||
w: blast.||||
 [DF]4 [EG]4 [FA]2 [EG]2 | [DF]6 z2 [GB]2 [GB]2 | [Ge]4 [GB]4 [EG]2 [EG]2 | %15
w: |||
w: |||
w: |||
w: |||
 [EB]4 [EG]4 [Ec]2 [Ec]2 | [EB]4 [EG]4 [DF]2 [DF]2 | E6 z2 |] %18
w: |||
w: |||
w: |||
w: |||
V:2
 E2 x2 | x10 E2 | x12 | x10 E2 | x8 E2 x2 | x10 E2 | x12 | x12 | E6 x2 || x4 | x12 | x12 | x12 | %13
 x12 | x12 | x12 | x12 | E6 x2 |] %18
V:3
 [E,G,]2 [E,A,]2 | [E,B,]4 [E,B,]4 [E,A,]2 [E,G,]2 | [E,B,]4 [E,E]4 [A,,E]2 [A,,E]2 | %3
w: ~ ~|~ ~ ~ ~|~ ~ ~ ~|
 [E,E]4 [E,B,]4 [B,,B,]2 [C,=A,]2 | [B,,B,]6 z2 [E,G,]2 [E,A,]2 | [E,B,]4 [E,B,]4 [E,A,]2 [E,G,]2 | %6
w: ~ ~ ~ ~|~ ~ ~|~ ~ ~ ~|
 [E,B,]4 [E,E]4 [A,,E]2 [A,,E]2 | [B,,E]4 [B,,B,]4 [B,,B,]2 [B,,A,]2 | [E,G,]6 z2 || %9
w: ~ ~ ~ ~|~ ~ ~ ~|~|
 [E,E]2 [E,E]2 | [E,B,]4 [E,E]4 [E,B,]2 [E,B,]2 | [E,G,]4 [E,B,]4 [E,B,]2 [E,B,]2 | %12
w: Now I’m|rest- ing, sweet- ly|rest- ing, In the|
 [B,,B,]4 [B,,B,]4 [B,,B,]2 [B,,B,]2 | [B,,B,]6 z2 [E,E]2 [E,E]2 | [E,B,]4 [E,E]4 [E,B,]2 [E,B,]2 | %15
w: cleft once made for|me. Je- sus,|bless- èd Rock of|
 [E,G,]4 [E,B,]4 [A,,A,]2 [A,,A,]2 | [B,,G,]4 [B,,B,]4 [B,,B,]2 [B,,A,]2 | [E,G,]6 z2 |] %18
w: Ag- es, I will|hide my- self in|Thee.|

